build/assets/img/icons/tv.svg

<svg xmlns="http://www.w3.org/2000/svg" width="32" height="32" viewBox="0 0 32 32"><path fill="#333" d="M30.854 6.32a1.998 1.998 0 0 0-1.705-1.522C24.789 4.268 20.367 4 16.005 4c-4.361 0-8.783.268-13.143.797A1.999 1.999 0 0 0 1.158 6.32a41.429 41.429 0 0 0 0 19.36 1.996 1.996 0 0 0 1.704 1.521c2.101.256 4.216.443 6.331.576-.114.073-.188.147-.188.223 0 .553 3.134 1 7 1s7-.447 7-1c0-.076-.073-.15-.188-.223 2.115-.133 4.23-.32 6.33-.576.83-.1 1.513-.707 1.705-1.521a41.403 41.403 0 0 0 .002-19.36zm-1.946 18.897a106.799 106.799 0 0 1-25.805 0c-1.463-6.145-1.463-12.29 0-18.434a106.697 106.697 0 0 1 25.805 0c1.463 6.144 1.463 12.289 0 18.434zM14.005 12.284a.523.523 0 0 1-.5.518l-3.749.257a.669.669 0 0 0-.564.546L9.025 15.5a.526.526 0 0 1-.518.5.471.471 0 0 1-.473-.5l.305-2.786a.706.706 0 0 1 .58-.551l4.586-.359c.276-.011.5.204.5.48zM26.506 12a1.5 1.5 0 1 0-.001-3.001A1.5 1.5 0 0 0 26.506 12zm0-2c.275 0 .5.225.5.5s-.225.5-.5.5-.5-.225-.5-.5.224-.5.5-.5zm2.5 9.5c0 .275-.225.5-.5.5h-3a.5.5 0 0 1 0-1h3a.5.5 0 0 1 .5.5zm0-3c0 .275-.225.5-.5.5h-3a.5.5 0 0 1 0-1h3a.5.5 0 0 1 .5.5zm-1 6c0 .275-.225.5-.5.5h-3a.5.5 0 0 1 0-1h3a.5.5 0 0 1 .5.5zM22.17 8.624c-2.707-.557-5.455-.839-8.165-.839s-5.457.282-8.165.839c-.35.072-.636.326-.749.667-1.442 4.381-1.442 8.823 0 13.204a1 1 0 0 0 .749.666 40.69 40.69 0 0 0 8.165.839 40.62 40.62 0 0 0 8.165-.84c.352-.072.637-.326.75-.666 1.441-4.381 1.441-8.823 0-13.204a1.003 1.003 0 0 0-.75-.666zm-.201 13.558a39.196 39.196 0 0 1-15.927 0c-1.381-4.192-1.381-8.385 0-12.579a39.16 39.16 0 0 1 15.927 0c1.381 4.193 1.381 8.385 0 12.579z"/></svg>

<?xml version="1.0" encoding="utf-8"?>
<!-- Generator: Adobe Illustrator 16.0.4, SVG Export Plug-In . SVG Version: 6.00 Build 0)  -->
<!DOCTYPE svg PUBLIC "-//W3C//DTD SVG 1.1//EN" "http://www.w3.org/Graphics/SVG/1.1/DTD/svg11.dtd">
<svg version="1.1" id="Capa_1" xmlns="http://www.w3.org/2000/svg" xmlns:xlink="http://www.w3.org/1999/xlink" x="0px" y="0px"
	 width="32px" height="32px" viewBox="0 0 32 32" enable-background="new 0 0 32 32" xml:space="preserve">
<path fill="#333333" d="M30.854,6.32c-0.192-0.814-0.875-1.422-1.705-1.522C24.789,4.268,20.367,4,16.005,4
	C11.644,4,7.222,4.268,2.862,4.797C2.032,4.898,1.351,5.505,1.158,6.32c-1.529,6.423-1.529,12.936,0,19.36
	c0.193,0.814,0.874,1.422,1.704,1.521c2.101,0.256,4.216,0.443,6.331,0.576C9.079,27.85,9.005,27.924,9.005,28c0,0.553,3.134,1,7,1
	c3.866,0,7-0.447,7-1c0-0.076-0.073-0.15-0.188-0.223c2.115-0.133,4.23-0.32,6.33-0.576c0.83-0.1,1.513-0.707,1.705-1.521
	C32.383,19.256,32.383,12.743,30.854,6.32z M28.908,25.217c-8.602,1.043-17.204,1.043-25.805,0c-1.463-6.145-1.463-12.29,0-18.434
	c8.602-1.044,17.204-1.044,25.805,0C30.371,12.927,30.371,19.072,28.908,25.217z M14.005,12.284c0,0.276-0.225,0.508-0.5,0.518
	l-3.749,0.257c-0.273,0.028-0.527,0.274-0.564,0.546L9.025,15.5C9.014,15.775,8.78,16,8.507,16c-0.274,0-0.487-0.225-0.473-0.5
	l0.305-2.786c0.046-0.272,0.307-0.52,0.58-0.551l4.586-0.359C13.781,11.793,14.005,12.008,14.005,12.284z M26.506,12
	c0.828,0,1.5-0.672,1.5-1.5S27.334,9,26.506,9s-1.5,0.672-1.5,1.5S25.678,12,26.506,12z M26.506,10c0.275,0,0.5,0.225,0.5,0.5
	s-0.225,0.5-0.5,0.5s-0.5-0.225-0.5-0.5S26.23,10,26.506,10z M29.006,19.5c0,0.275-0.225,0.5-0.5,0.5h-3c-0.277,0-0.5-0.225-0.5-0.5
	c0-0.277,0.223-0.5,0.5-0.5h3C28.781,19,29.006,19.223,29.006,19.5z M29.006,16.5c0,0.275-0.225,0.5-0.5,0.5h-3
	c-0.277,0-0.5-0.225-0.5-0.5c0-0.276,0.223-0.5,0.5-0.5h3C28.781,16,29.006,16.224,29.006,16.5z M28.006,22.5
	c0,0.275-0.225,0.5-0.5,0.5h-3c-0.277,0-0.5-0.225-0.5-0.5c0-0.277,0.223-0.5,0.5-0.5h3C27.781,22,28.006,22.223,28.006,22.5z
	 M22.17,8.624c-2.707-0.557-5.455-0.839-8.165-0.839S8.548,8.067,5.84,8.624C5.49,8.696,5.204,8.95,5.091,9.291
	c-1.442,4.381-1.442,8.823,0,13.204c0.112,0.34,0.398,0.594,0.749,0.666C8.548,23.717,11.295,24,14.005,24
	c2.709,0,5.458-0.283,8.165-0.84c0.352-0.072,0.637-0.326,0.75-0.666c1.441-4.381,1.441-8.823,0-13.204
	C22.807,8.95,22.521,8.696,22.17,8.624z M21.969,22.182c-5.309,1.09-10.619,1.09-15.927,0c-1.381-4.192-1.381-8.385,0-12.579
	c5.309-1.091,10.619-1.091,15.927,0C23.35,13.796,23.35,17.988,21.969,22.182z"/>
</svg>
